svgs/regular/arrow-down-from-line.svg

<svg xmlns="http://www.w3.org/2000/svg" viewBox="0 0 384 512"><!--! Font Awesome Pro 6.0.0-alpha3 by @fontawesome - https://fontawesome.com License - https://fontawesome.com/license (Commercial License) --><path d="M24 80.03h336c13.25 0 24-10.76 24-24.02S373.3 32 360 32h-336c-13.25 0-24 10.76-24 24.02S10.75 80.03 24 80.03zM302.5 303.7L216 395.7V152.1c0-13.26-10.75-24.05-24-24.05S168 138.8 168 152.1v243.6l-86.53-91.97C76.75 298.7 70.38 296.2 64 296.2c-5.906 0-11.81 2.158-16.44 6.536c-9.656 9.069-10.12 24.27-1.031 33.93l127.1 136.1c9.062 9.694 25.88 9.694 34.94 0l128-136.1c9.094-9.663 8.625-24.86-1.031-33.93C326.8 293.6 311.6 294 302.5 303.7z"/></svg>

<svg xmlns="http://www.w3.org/2000/svg" viewBox="0 0 384 512"><!-- Font Awesome Pro 6.0.0-alpha2 by @fontawesome - https://fontawesome.com License - https://fontawesome.com/license (Commercial License) --><path d="M24 80.032H360C373.25 80.032 384 69.275 384 56.016S373.25 32 360 32H24C10.75 32 0 42.757 0 56.016S10.75 80.032 24 80.032ZM302.531 303.743L216 395.718V152.08C216 138.821 205.25 128.064 192 128.064S168 138.821 168 152.08V395.718L81.469 303.743C76.75 298.708 70.375 296.175 64 296.175C58.094 296.175 52.188 298.333 47.563 302.711C37.906 311.779 37.438 326.977 46.531 336.639L174.531 472.73C183.594 482.423 200.406 482.423 209.469 472.73L337.469 336.639C346.562 326.977 346.094 311.779 336.437 302.711C326.812 293.611 311.625 294.049 302.531 303.743Z"/></svg>
